!!!OTL: Jianjian hua
!!!ARE: Asia, China,ˇHebei, Fuping
!! IV, 70
!!!SCT: C1641
!!!YEM: Copyright 1995, estate of Helmut Schaffrath.
**kern
*ICvox
*Ivox
*M2/4
*k[f#]
*G:
{16dd
16ee
16dd
16cc
4dd
=1
16dd
16ee
16dd
16cc
4a
=2
8.g
16a
4dd
=3
16a
16b
16a
16d
4g}
=4
{8g
16g
16a
8ee
8dd
=5
16a
16dd
16a
16g
8.fn
16g
=6
8a
8a
16dd
8dd
16a
=7
8g
16a
16e
4d}
=8
{8a
8dd
8.fn
16g
=9
8a
8a
16dd
8dd
16a
=10
16g
8a
16e
4d}
==
!!!AGN: Xiaodiao. FunÅ shi
!! D ZHI, oder) D SHANG, oder) d YU, Kuyin diaoshi
!!!AMT: simple duple
!!!AIN: vox
!!!EED: Helmut Schaffrath
!!!EEV: 1.0
*-
